build/img/sprite/proposal-user.svg

<svg width="10" height="12" viewBox="0 0 10 12" fill="none" xmlns="http://www.w3.org/2000/svg">
<path d="M4.99993 5.86879C6.33412 5.86879 7.4158 4.55503 7.4158 2.93441C7.4158 1.31376 7.06067 0 4.99993 0C2.93918 0 2.58398 1.31376 2.58398 2.93441C2.58398 4.55503 3.66566 5.86879 4.99993 5.86879Z" fill="#2C8ECC"/>
<path d="M9.5625 10.4267C9.56379 10.3996 9.56294 10.239 9.5625 10.4267V10.4267Z" fill="#2C8ECC"/>
<path d="M9.55647 10.2306C9.51173 7.40741 9.14302 6.60296 6.32155 6.09375C6.32155 6.09375 5.92438 6.59984 4.99867 6.59984C4.07295 6.59984 3.67572 6.09375 3.67572 6.09375C0.885032 6.59741 0.493901 7.38992 0.442473 10.1389C0.438255 10.3633 0.436301 10.3751 0.435547 10.3491C0.435718 10.3979 0.435924 10.4882 0.435924 10.6457C0.435924 10.6457 1.10765 11.9998 4.99867 11.9998C8.88962 11.9998 9.56141 10.6457 9.56141 10.6457C9.56141 10.5445 9.56148 10.4741 9.56158 10.4263C9.56083 10.4424 9.55932 10.4112 9.55647 10.2306Z" fill="#2C8ECC"/>
</svg>

<svg width="10" height="12" fill="none" xmlns="http://www.w3.org/2000/svg"><path d="M5 5.869c1.334 0 2.416-1.314 2.416-2.935C7.416 1.314 7.06 0 5 0S2.584 1.314 2.584 2.934C2.584 4.555 3.666 5.87 5 5.87zm4.563 4.558c0-.027 0-.188 0 0zm-.007-.197c-.044-2.823-.413-3.627-3.234-4.136 0 0-.398.506-1.323.506-.926 0-1.323-.506-1.323-.506C.885 6.597.494 7.39.442 10.139c-.004.224-.006.236-.006.21v.297S1.108 12 4.999 12c3.89 0 4.562-1.354 4.562-1.354v-.22c0 .016-.002-.015-.005-.195z" fill="#2C8ECC"/></svg>
